Origami/32x32/apps/sparkleshare.svg

<svg width="32" height="32" version="1" xmlns="http://www.w3.org/2000/svg">
 <rect x="3" y="12" width="25" height="16" rx="1.25" ry="1.25" style="opacity:.2"/>
 <path d="m3 21.75c0 0.692 0.5575 1.25 1.25 1.25h22.5c0.692 0 1.25-0.558 1.25-1.25v-13.5c0-0.6925-0.558-1.25-1.25-1.25h-12.75v-0.75c0-0.6925-0.557-1.25-1.25-1.25h-8.5c-0.6925 0-1.25 0.5575-1.25 1.25" style="fill:#dd772f"/>
 <rect x="3" y="10" width="25" height="16" rx="1.25" ry="1.25" style="opacity:.2"/>
 <rect x="5" y="9" width="21" height="10" rx="1.25" ry="1.25" style="fill:#dcdcdc"/>
 <rect x="3" y="11" width="25" height="16" rx="1.25" ry="1.25" style="fill:#ee923a"/>
 <path d="m4.25 5c-0.6925 0-1.25 0.5575-1.25 1.25v1c0-0.6925 0.5575-1.25 1.25-1.25h8.5c0.693 0 1.25 0.5575 1.25 1.25v0.75h12.75c0.692 0 1.25 0.5575 1.25 1.25v-1c0-0.6925-0.558-1.25-1.25-1.25h-12.75v-0.75c0-0.6925-0.557-1.25-1.25-1.25h-8.5z" style="fill:#ffffff;opacity:.1"/>
 <path d="m15.546875 14.000193a1.3075637 1.2560185 0 0 0 -1.28125 0.84375l-0.984375 2.722656-3 0.05664a1.3075637 1.2560185 0 0 0 -0.7636719 2.257812l2.3906249 1.740235-0.869141 2.757812a1.3075637 1.2560185 0 0 0 2 1.394532l2.460938-1.646484 2.460938 1.646485a1.3075637 1.2560185 0 0 0 2 -1.394532l-0.869141-2.757812 2.390625-1.740235a1.3075637 1.2560185 0 0 0 -0.763672 -2.257812l-3-0.05664-0.984375-2.722656a1.3075637 1.2560185 0 0 0 -1.1875 -0.84375zm-0.046875 1.841797l0.808594 2.234375a1.50015 1.50015 0 0 0 1.382812 0.990234l2.300782 0.04297-1.783204 1.298828a1.50015 1.50015 0 0 0 -0.548828 1.664063l0.679688 2.15039-2.00586-1.341797a1.50015 1.50015 0 0 0 -1.667968 0l-2.00586 1.341797 0.679688-2.15039a1.50015 1.50015 0 0 0 -0.548828 -1.664063l-1.783204-1.298828 2.300782-0.04297a1.50015 1.50015 0 0 0 1.382812 -0.990234l0.808594-2.234375z" style="opacity:.2"/>
 <path d="m15.546875 13a1.3075637 1.2560185 0 0 0 -1.28125 0.84375l-0.984375 2.722656-3 0.056641a1.3075637 1.2560185 0 0 0 -0.7636719 2.257812l2.3906249 1.740235-0.869141 2.757812a1.3075637 1.2560185 0 0 0 2 1.394532l2.460938-1.646485 2.460938 1.646485a1.3075637 1.2560185 0 0 0 2 -1.394532l-0.869141-2.757812 2.390625-1.740235a1.3075637 1.2560185 0 0 0 -0.763672 -2.257812l-3-0.056641-0.984375-2.722656a1.3075637 1.2560185 0 0 0 -1.1875 -0.84375zm-0.046875 1.841797l0.808594 2.234375a1.50015 1.50015 0 0 0 1.382812 0.990234l2.300782 0.042969-1.783204 1.298828a1.50015 1.50015 0 0 0 -0.548828 1.664063l0.679688 2.15039-2.00586-1.341797a1.50015 1.50015 0 0 0 -1.667968 0l-2.00586 1.341797 0.679688-2.15039a1.50015 1.50015 0 0 0 -0.548828 -1.664063l-1.783204-1.298828 2.300782-0.042969a1.50015 1.50015 0 0 0 1.382812 -0.990234l0.808594-2.234375z" style="fill:#ffffff"/>
</svg>

<svg xmlns="http://www.w3.org/2000/svg" width="32" height="32" version="1">
 <rect style="opacity:0.2" width="25" height="16" x="3" y="12" rx="1.25" ry="1.25"/>
 <path style="fill:#dd772f" d="M 3,21.75 C 3,22.442 3.5575,23 4.25,23 H 26.75 C 27.442,23 28,22.442 28,21.75 V 8.25 C 28,7.5575 27.442,7 26.75,7 H 14 V 6.25 C 14,5.5575 13.443,5 12.75,5 H 4.25 C 3.5575,5 3,5.5575 3,6.25"/>
 <rect style="opacity:0.2" width="25" height="16" x="3" y="10" rx="1.25" ry="1.25"/>
 <rect style="fill:#dcdcdc" width="21" height="10" x="5" y="9" rx="1.25" ry="1.25"/>
 <rect style="fill:#ee923a" width="25" height="16" x="3" y="11" rx="1.25" ry="1.25"/>
 <path style="opacity:0.1;fill:#ffffff" d="M 4.25 5 C 3.5575 5 3 5.5575 3 6.25 L 3 7.25 C 3 6.5575 3.5575 6 4.25 6 L 12.75 6 C 13.443 6 14 6.5575 14 7.25 L 14 8 L 26.75 8 C 27.442 8 28 8.5575 28 9.25 L 28 8.25 C 28 7.5575 27.442 7 26.75 7 L 14 7 L 14 6.25 C 14 5.5575 13.443 5 12.75 5 L 4.25 5 z"/>
 <path style="opacity:0.2" d="m 15.546875,14.000193 a 1.3075637,1.2560185 0 0 0 -1.28125,0.84375 l -0.984375,2.722656 -3,0.05664 a 1.3075637,1.2560185 0 0 0 -0.7636719,2.257812 l 2.3906249,1.740235 -0.869141,2.757812 a 1.3075637,1.2560185 0 0 0 2,1.394532 L 15.5,24.127146 l 2.460938,1.646485 a 1.3075637,1.2560185 0 0 0 2,-1.394532 l -0.869141,-2.757812 2.390625,-1.740235 A 1.3075637,1.2560185 0 0 0 20.71875,17.62324 l -3,-0.05664 -0.984375,-2.722656 a 1.3075637,1.2560185 0 0 0 -1.1875,-0.84375 z M 15.5,15.84199 l 0.808594,2.234375 a 1.50015,1.50015 0 0 0 1.382812,0.990234 l 2.300782,0.04297 -1.783204,1.298828 a 1.50015,1.50015 0 0 0 -0.548828,1.664063 l 0.679688,2.15039 -2.00586,-1.341797 a 1.50015,1.50015 0 0 0 -1.667968,0 l -2.00586,1.341797 0.679688,-2.15039 a 1.50015,1.50015 0 0 0 -0.548828,-1.664063 l -1.783204,-1.298828 2.300782,-0.04297 a 1.50015,1.50015 0 0 0 1.382812,-0.990234 L 15.5,15.84199 Z"/>
 <path style="fill:#ffffff" d="M 15.546875 13 A 1.3075637 1.2560185 0 0 0 14.265625 13.84375 L 13.28125 16.566406 L 10.28125 16.623047 A 1.3075637 1.2560185 0 0 0 9.5175781 18.880859 L 11.908203 20.621094 L 11.039062 23.378906 A 1.3075637 1.2560185 0 0 0 13.039062 24.773438 L 15.5 23.126953 L 17.960938 24.773438 A 1.3075637 1.2560185 0 0 0 19.960938 23.378906 L 19.091797 20.621094 L 21.482422 18.880859 A 1.3075637 1.2560185 0 0 0 20.71875 16.623047 L 17.71875 16.566406 L 16.734375 13.84375 A 1.3075637 1.2560185 0 0 0 15.546875 13 z M 15.5 14.841797 L 16.308594 17.076172 A 1.50015 1.50015 0 0 0 17.691406 18.066406 L 19.992188 18.109375 L 18.208984 19.408203 A 1.50015 1.50015 0 0 0 17.660156 21.072266 L 18.339844 23.222656 L 16.333984 21.880859 A 1.50015 1.50015 0 0 0 14.666016 21.880859 L 12.660156 23.222656 L 13.339844 21.072266 A 1.50015 1.50015 0 0 0 12.791016 19.408203 L 11.007812 18.109375 L 13.308594 18.066406 A 1.50015 1.50015 0 0 0 14.691406 17.076172 L 15.5 14.841797 z"/>
</svg>
